dist/svg/uncombine.svg

<?xml version="1.0" encoding="UTF-8" standalone="no"?>
<!-- Created with Inkscape (http://www.inkscape.org/) -->

<svg
   xmlns:dc="http://purl.org/dc/elements/1.1/"
   xmlns:cc="http://creativecommons.org/ns#"
   xmlns:rdf="http://www.w3.org/1999/02/22-rdf-syntax-ns#"
   xmlns:svg="http://www.w3.org/2000/svg"
   xmlns="http://www.w3.org/2000/svg"
   xmlns:xlink="http://www.w3.org/1999/xlink"
   xmlns:sodipodi="http://sodipodi.sourceforge.net/DTD/sodipodi-0.dtd"
   xmlns:inkscape="http://www.inkscape.org/namespaces/inkscape"
   width="20"
   height="20"
   id="svg5738"
   version="1.1"
   inkscape:version="0.91 r13725"
   sodipodi:docname="uncombine.svg">
  <defs
     id="defs5740">
    <linearGradient
       inkscape:collect="always"
       xlink:href="#linearGradient4103"
       id="linearGradient4184"
       gradientUnits="userSpaceOnUse"
       x1="3003"
       y1="10"
       x2="3017"
       y2="10"
       gradientTransform="translate(1,2.6171874e-6)" />
    <linearGradient
       inkscape:collect="always"
       id="linearGradient4103">
      <stop
         style="stop-color:#000000;stop-opacity:1;"
         offset="0"
         id="stop4105" />
      <stop
         style="stop-color:#000000;stop-opacity:0;"
         offset="1"
         id="stop4107" />
    </linearGradient>
  </defs>
  <sodipodi:namedview
     id="base"
     pagecolor="#ffffff"
     bordercolor="#666666"
     borderopacity="1.0"
     inkscape:pageopacity="0.0"
     inkscape:pageshadow="2"
     inkscape:zoom="11.313708"
     inkscape:cx="-10.273946"
     inkscape:cy="6.930344"
     inkscape:document-units="px"
     inkscape:current-layer="layer1"
     showgrid="false"
     inkscape:window-width="2078"
     inkscape:window-height="1054"
     inkscape:window-x="900"
     inkscape:window-y="296"
     inkscape:window-maximized="0"
     showguides="false"
     inkscape:snap-bbox="true"
     inkscape:bbox-paths="true"
     inkscape:bbox-nodes="true"
     inkscape:object-paths="true"
     inkscape:object-nodes="true"
     inkscape:snap-smooth-nodes="true"
     inkscape:snap-others="false"
     inkscape:snap-nodes="false">
    <inkscape:grid
       type="xygrid"
       id="grid5746"
       empspacing="2"
       visible="true"
       enabled="true"
       snapvisiblegridlinesonly="true"
       spacingx="0.5px"
       spacingy="0.5px"
       color="#0000ff"
       opacity="0.05882353" />
  </sodipodi:namedview>
  <metadata
     id="metadata5743">
    <rdf:RDF>
      <cc:Work
         rdf:about="">
        <dc:format>image/svg+xml</dc:format>
        <dc:type
           rdf:resource="http://purl.org/dc/dcmitype/StillImage" />
        <dc:title></dc:title>
      </cc:Work>
    </rdf:RDF>
  </metadata>
  <g
     inkscape:label="Layer 1"
     inkscape:groupmode="layer"
     id="layer1"
     transform="translate(0,-1032.3622)">
    <path
       style="color:#000000;clip-rule:nonzero;display:inline;overflow:visible;visibility:visible;opacity:1;isolation:auto;mix-blend-mode:normal;color-interpolation:sRGB;color-interpolation-filters:linearRGB;solid-color:#000000;solid-opacity:1;fill:#000000;fill-opacity:1;fill-rule:nonzero;stroke:none;stroke-width:2;stroke-linecap:butt;stroke-linejoin:miter;stroke-miterlimit:4;stroke-dasharray:none;stroke-dashoffset:0;stroke-opacity:1;marker:none;color-rendering:auto;image-rendering:auto;shape-rendering:auto;text-rendering:auto;enable-background:accumulate"
       d="M 12.005859 2 C 11.75036 2 11.494605 2.097187 11.298828 2.2929688 L 10.302734 3.2890625 C 9.9111804 3.680626 9.9111804 4.3115615 10.302734 4.703125 L 11.302734 5.7011719 C 11.694288 6.0927354 12.32329 6.0927354 12.714844 5.7011719 L 13.710938 4.7050781 C 14.102491 4.3135146 14.102491 3.6825791 13.710938 3.2910156 L 12.712891 2.2929688 C 12.517114 2.097187 12.261359 2 12.005859 2 z M 16.001953 5.9941406 C 15.746463 5.9941406 15.490692 6.0932735 15.294922 6.2890625 L 14.298828 7.2851562 C 13.907289 7.6767342 13.907289 8.3056877 14.298828 8.6972656 L 15.296875 9.6972656 C 15.688414 10.088844 16.319398 10.088844 16.710938 9.6972656 L 17.707031 8.7011719 C 18.098571 8.3095939 18.098571 7.6786873 17.707031 7.2871094 L 16.708984 6.2890625 C 16.513215 6.0932735 16.257443 5.9941406 16.001953 5.9941406 z M 9 7 C 8 7 8 8 8.5 8.5 C 8.833333 8.8333 9.5 9.5 9.5 9.5 L 8.5 10.5 C 8.5 10.5 8 11 8.5 11.5 C 9 12 9.5 11.5 9.5 11.5 L 10.5 10.5 L 11.5 11.5 C 12 12 13 12 13 11 L 13 7 L 9 7 z M 4.0488281 10.001953 C 3.7933087 10.001953 3.5375891 10.099129 3.3417969 10.294922 L 2.2988281 11.337891 C 1.9072437 11.729476 1.9072437 12.360368 2.2988281 12.751953 L 7.2480469 17.701172 C 7.6396313 18.092757 8.270525 18.092757 8.6621094 17.701172 L 9.7050781 16.658203 C 10.096663 16.266618 10.096663 15.635726 9.7050781 15.244141 L 4.7558594 10.294922 C 4.5600672 10.099129 4.3043475 10.001953 4.0488281 10.001953 z "
       transform="translate(0,1032.3622)"
       id="rect9198" />
  </g>
</svg>

<svg xmlns="http://www.w3.org/2000/svg" viewBox="0 0 20 20">
	<path d="m12 2c-.3 0-.5.1-.7.3l-1 1c-.4.4-.4 1 0 1.4l1 1c.4.4 1 .4 1.4 0l1-1c.4-.4.4-1 0-1.4l-1-1c-.2-.2-.4-.3-.7-.3zm4 4c-.3 0-.5.1-.7.3l-1 1c-.4.4-.4 1 0 1.4l1 1c.4.4 1 .4 1.4 0l1-1c.4-.4.4-1 0-1.4l-1-1c-.2-.2-.4-.3-.7-.3zm-7 1c-1 0-1 1-.5 1.5.3.3 1 1 1 1l-1 1s-.5.5 0 1 1 0 1 0l1-1 1 1c.5.5 1.5.5 1.5-.5v-4zm-5 3c-.3 0-.5.1-.7.3l-1 1c-.4.4-.4 1 0 1.4l4.9 4.9c.4.4 1 .4 1.4 0l1-1c.4-.4.4-1 0-1.4l-4.9-4.9c-.1-.2-.4-.3-.7-.3z"/>
</svg>
